X:135
T:Sweet Biddy Daly
T:Health to the Ladies, A
R:jig
H:Also played in A, #334
D:Kevin Burke: Up Close
Z:id:hn-jig-135
M:6/8
K:G
e|:dBG AGE|GED DEG|AcB AGA|BAA A2e|dBG AGE|GED DEG|AcB AGA|1 BGG G2e:|2 BGG G2A||
Bdd cee|Bdd dBG|Bdd cee|dBG A2G|Bdd cee|Bdd dBG|AcB AGA|1 BGG G2A:|2 BGG G2||

